/* XPM */
static const char *image[] = {
"32 32 2 1",
"  c None",
"# c #cad3f5",
"                                ",
"                                ",
"                                ",
"                                ",
"                                ",
"                                ",
"                                ",
"      ####################      ",
"      ####################      ",
"      ##                ##      ",
"      ##                ##      ",
"      ##                ##      ",
"      ##                ##      ",
"      ##                ##      ",
"      ##                ##      ",
"      ##                ##      ",
"      ##                ##      ",
"      ##                ##      ",
"      ##                ##      ",
"      ##                ##      ",
"      ####################      ",
"      ####################      ",
"              ####              ",
"              ####              ",
"              ####              ",
"              ####              ",
"          ############          ",
"          ############          ",
"                                ",
"                                ",
"                                ",
"                                "
};
