/* XPM */
static const char *image[] = {
"32 32 2 1",
"  c None",
"# c #c6a0f6",
"                                ",
"                                ",
"                                ",
"                                ",
"                                ",
"                                ",
"                                ",
"                                ",
"        ######     ######       ",
"        ######     ######       ",
"        ######     ######       ",
"        ######     ######       ",
"        ######     ######       ",
"        ######     ######       ",
"                                ",
"                                ",
"                                ",
"                                ",
"                                ",
"        ######     ######       ",
"        ######     ######       ",
"        ######     ######       ",
"        ######     ######       ",
"        ######     ######       ",
"        ######     ######       ",
"                                ",
"                                ",
"                                ",
"                                ",
"                                ",
"                                ",
"                                "
};
