/* XPM */
/* Normal and pressed button frames, stacked vertically. */
static const char *image[] = {
"40 64 2 1",
". c #f4d4d8",
"# c #d20f39",
"........................................",
"........................................",
"........................................",
"........................................",
"........................................",
"........................................",
"........................................",
"........................................",
"........................................",
"........................................",
"..............##.........##.............",
"..............###.......##..............",
"...............###.....##...............",
"................###...##................",
".................###.##.................",
"..................####..................",
"...................###..................",
"..................#####.................",
".................##..###................",
"................##....###...............",
"...............##......###..............",
"..............##........###.............",
"..............#..........#..............",
"........................................",
"........................................",
"........................................",
"........................................",
"........................................",
"........................................",
"........................................",
"........................................",
"........................................",
"........................................",
"........................................",
"........................................",
"........................................",
"........................................",
"........................................",
"........................................",
"........................................",
"........................................",
"........................................",
"..............##.........##.............",
"..............###.......##..............",
"...............###.....##...............",
"................###...##................",
".................###.##.................",
"..................####..................",
"...................###..................",
"..................#####.................",
".................##..###................",
"................##....###...............",
"...............##......###..............",
"..............##........###.............",
"..............#..........#..............",
"........................................",
"........................................",
"........................................",
"........................................",
"........................................",
"........................................",
"........................................",
"........................................",
"........................................"
};
