/* XPM */
/* Normal and pressed button frames, stacked vertically. */
static const char *image[] = {
"40 64 2 1",
". c #e6e9ef",
"# c #4c4f69",
"........................................",
"........................................",
"........................................",
"........................................",
"........................................",
"........................................",
"........................................",
"........................................",
"........................................",
"........................................",
"..............##.........##.............",
"..............###.......##..............",
"...............###.....##...............",
"................###...##................",
".................###.##.................",
"..................####..................",
"...................###..................",
"..................#####.................",
".................##..###................",
"................##....###...............",
"...............##......###..............",
"..............##........###.............",
"..............#..........#..............",
"........................................",
"........................................",
"........................................",
"........................................",
"........................................",
"........................................",
"........................................",
"........................................",
"........................................",
"........................................",
"........................................",
"........................................",
"........................................",
"........................................",
"........................................",
"........................................",
"........................................",
"........................................",
"........................................",
"..............##.........##.............",
"..............###.......##..............",
"...............###.....##...............",
"................###...##................",
".................###.##.................",
"..................####..................",
"...................###..................",
"..................#####.................",
".................##..###................",
"................##....###...............",
"...............##......###..............",
"..............##........###.............",
"..............#..........#..............",
"........................................",
"........................................",
"........................................",
"........................................",
"........................................",
"........................................",
"........................................",
"........................................",
"........................................"
};
