/* XPM */
static const char *image[] = {
"32 32 3 1",
"  c None",
"# c #4c4f69",
"+ c #8839ef",
"                                ",
"                                ",
"                                ",
"                                ",
"                                ",
"                                ",
"    ########################    ",
"    ########################    ",
"    ##                    ##    ",
"    ##                    ##    ",
"    ##                    ##    ",
"    ##    +               ##    ",
"    ##    ++              ##    ",
"    ##     ++             ##    ",
"    ##      ++            ##    ",
"    ##       ++           ##    ",
"    ##       ++           ##    ",
"    ##      ++            ##    ",
"    ##     ++             ##    ",
"    ##    ++              ##    ",
"    ##    +       ++++++  ##    ",
"    ##            ++++++  ##    ",
"    ##                    ##    ",
"    ##                    ##    ",
"    ########################    ",
"    ########################    ",
"                                ",
"                                ",
"                                ",
"                                ",
"                                ",
"                                "
};
