/* XPM */
static const char *image[] = {
"32 32 3 1",
"  c None",
"# c #cad3f5",
"+ c #c6a0f6",
"                                ",
"                                ",
"                                ",
"                                ",
"                                ",
"                                ",
"    ########################    ",
"    ########################    ",
"    ##                    ##    ",
"    ##                    ##    ",
"    ##                    ##    ",
"    ##    +               ##    ",
"    ##    ++              ##    ",
"    ##     ++             ##    ",
"    ##      ++            ##    ",
"    ##       ++           ##    ",
"    ##       ++           ##    ",
"    ##      ++            ##    ",
"    ##     ++             ##    ",
"    ##    ++              ##    ",
"    ##    +       ++++++  ##    ",
"    ##            ++++++  ##    ",
"    ##                    ##    ",
"    ##                    ##    ",
"    ########################    ",
"    ########################    ",
"                                ",
"                                ",
"                                ",
"                                ",
"                                ",
"                                "
};
